X:1
T:McFaddens
M:C
L:1/8
Q:80
C:Arr. by T. Tully
S:Reel
K:HP
[| {g}de | \
{g}fB{gBeBG}B2{g}AB{gBeBG}B2 | \
{g}fB{gBeBG}B2{gef}e2{g}de |
{g}fB{gBeBG}B2{g}fg{a}fe | \
{g}dfaf{gef}e2{g}de{g}fB{gBeBG}B2{g}AB{gBeBG}B2 | \
{g}fB{gBeBG}B2{gef}e2{g}de |
{g}fB{gBeBG}B2{g}fg{a}fe | \
{g}dfaf{g}e|] [ | \
g{g}fe |
{Gdc}d3e{g}fgfe | \
{g}de{g}fd{g}eA{gAGAG}A2 | \
{g}dA{gAGAG}A2{g}fA{gAGAG}A2 |
{g}dfaf{g}eg{g}fe{Gdc}d3e{g}fgfe | \
{g}de{g}fd{g}eA{gAGAG}A2 | \
{g}dA{gAGAG}A2{g}fA{gAGAG}A2 |
{g}dfaf{gef}e|]
